packages/tokens/icons/boxDown/size16Px.svg

<svg viewBox="0 0 16 16" fill="none" xmlns="http://www.w3.org/2000/svg" width="1em" height="1em"><path d="M5.5 4.5V4.5C4.39543 4.5 3.5 5.39543 3.5 6.5L3.5 11.5C3.5 12.6046 4.39543 13.5 5.5 13.5H10.5C11.6046 13.5 12.5 12.6046 12.5 11.5V6.5C12.5 5.39543 11.6046 4.5 10.5 4.5V4.5" stroke="currentColor" stroke-linecap="round"/><path d="M8 2.5L8 7.5M6 6.5L8 8.5L10 6.5" stroke="currentColor" stroke-linecap="round" stroke-linejoin="round"/></svg>

<svg xmlns="http://www.w3.org/2000/svg" fill="none" viewBox="0 0 16 16" width="1em" height="1em"><path stroke="currentColor" stroke-linecap="round" d="M5.5 4.5v0a2 2 0 0 0-2 2v5a2 2 0 0 0 2 2h5a2 2 0 0 0 2-2v-5a2 2 0 0 0-2-2v0"/><path stroke="currentColor" stroke-linecap="round" stroke-linejoin="round" d="M8 2.5v5m-2-1 2 2 2-2"/></svg>
